src/images/button-light.svg

<svg fill="none" height="64" viewBox="0 0 64 64" width="64" xmlns="http://www.w3.org/2000/svg"><path clip-rule="evenodd" d="m32 62c16.5685 0 30-13.4315 30-30s-13.4315-30-30-30-30 13.4315-30 30 13.4315 30 30 30zm0 2c17.6731 0 32-14.3269 32-32s-14.3269-32-32-32-32 14.3269-32 32 14.3269 32 32 32zm27-32c0 14.9117-12.0883 27-27 27s-27-12.0883-27-27 12.0883-27 27-27 27 12.0883 27 27zm-33.9393-4.0607c-.5858-.5857-1.5356-.5857-2.1214 0-.5857.5858-.5857 1.5356 0 2.1214l8 8c.5858.5857 1.5356.5857 2.1214 0l8-8c.5857-.5858.5857-1.5356 0-2.1214-.5858-.5857-1.5356-.5857-2.1214 0l-6.9393 6.9394z" fill="#f4b000" fill-rule="evenodd"/></svg>

<svg width="64" height="64" viewBox="0 0 64 64" fill="none" xmlns="http://www.w3.org/2000/svg">
<path fill-rule="evenodd" clip-rule="evenodd" d="M32 62C48.5685 62 62 48.5685 62 32C62 15.4315 48.5685 2 32 2C15.4315 2 2 15.4315 2 32C2 48.5685 15.4315 62 32 62ZM32 64C49.6731 64 64 49.6731 64 32C64 14.3269 49.6731 0 32 0C14.3269 0 0 14.3269 0 32C0 49.6731 14.3269 64 32 64ZM59 32C59 46.9117 46.9117 59 32 59C17.0883 59 5 46.9117 5 32C5 17.0883 17.0883 5 32 5C46.9117 5 59 17.0883 59 32ZM25.0607 27.9393C24.4749 27.3536 23.5251 27.3536 22.9393 27.9393C22.3536 28.5251 22.3536 29.4749 22.9393 30.0607L30.9393 38.0607C31.5251 38.6464 32.4749 38.6464 33.0607 38.0607L41.0607 30.0607C41.6464 29.4749 41.6464 28.5251 41.0607 27.9393C40.4749 27.3536 39.5251 27.3536 38.9393 27.9393L32 34.8787L25.0607 27.9393Z" fill="#F4B000"/>
</svg>
